static/img/misc/min-star-whole.svg

<svg fill="none" height="36" viewBox="0 0 37 36" width="37" xmlns="http://www.w3.org/2000/svg"><path d="m18.7004 3 5.0432 9.5586 10.6493 1.8426-7.5324 7.7502 1.5384 10.6974-9.6985-4.7688-9.69842 4.7688 1.53842-10.6974-7.53239-7.7502 10.64919-1.8426z" fill="#8a2432" stroke="#8a2432" stroke-width="2"/></svg>

<svg width="37" height="36" viewBox="0 0 37 36" fill="none" xmlns="http://www.w3.org/2000/svg">
<path d="M18.7004 3L23.7436 12.5586L34.3929 14.4012L26.8605 22.1514L28.3989 32.8488L18.7004 28.08L9.00198 32.8488L10.5404 22.1514L3.00801 14.4012L13.6572 12.5586L18.7004 3Z" fill="#8A2432" stroke="#8A2432" stroke-width="2"/>
</svg>
